X: 131027
T: Mary Staunton's
T: Walter Sammons'
S: "Crossroads Dance" [Taylor/Mallinson]
Z: B.Black
R: reel
M: 4/4
L: 1/8
K: D
FAAB A2 dB|AFDE FE E2|FAAF A2 dB|AFEG FD D2 :|
FA A2 BAdA|FAdA BE E2|FA A2 BAdB|AFEG FD D2|
FAdA BAda|FAda BE E2|dcBA BcdB|AFEG FD D2||
